X: 55
T:Himno de Hespanha
M:2/4
L:1/8
Q:200
C:Trad.
R:Marcha
K:F
F2C2 | A2 Fc| BA GF | {E}FE DC | F2G2 | A3 c | BA GF | c3 (3CDE | F2C2 |
 A2Fc | BA GF |{E}FE DC | F2G2|
A3 c | BAGF |c4 | c2 A>c | B2 G>B | A2 F>A| GC DE |
F2G2| A>B cB| A2G2 | F2-F2 | c2 A>c | B2 G>B | A2 F>A|
GC DE | F2G2 | A>B cB | A2G2 |F3 (3CDE ||

